server/website/public/icons/base/shipping.svg

<svg width="48" height="48" viewBox="0 0 48 48" fill="none" xmlns="http://www.w3.org/2000/svg">
<path d="M10.9091 41C9.09091 41 7.54545 40.362 6.27273 39.0859C5 37.8099 4.36364 36.2604 4.36364 34.4375H0V10.375C0 9.17187 0.427637 8.14229 1.28291 7.28625C2.13818 6.43021 3.16509 6.00146 4.36364 6H34.9091V14.75H41.4545L48 23.5V34.4375H43.6364C43.6364 36.2604 43 37.8099 41.7273 39.0859C40.4545 40.362 38.9091 41 37.0909 41C35.2727 41 33.7273 40.362 32.4545 39.0859C31.1818 37.8099 30.5455 36.2604 30.5455 34.4375H17.4545C17.4545 36.2604 16.8182 37.8099 15.5455 39.0859C14.2727 40.362 12.7273 41 10.9091 41ZM10.9091 36.625C11.5273 36.625 12.0458 36.415 12.4647 35.995C12.8836 35.575 13.0924 35.0558 13.0909 34.4375C13.0895 33.8192 12.88 33.3 12.4625 32.88C12.0451 32.46 11.5273 32.25 10.9091 32.25C10.2909 32.25 9.77309 32.46 9.35564 32.88C8.93818 33.3 8.72873 33.8192 8.72727 34.4375C8.72582 35.0558 8.93527 35.5757 9.35564 35.9972C9.776 36.4186 10.2938 36.6279 10.9091 36.625ZM37.0909 36.625C37.7091 36.625 38.2276 36.415 38.6465 35.995C39.0655 35.575 39.2742 35.0558 39.2727 34.4375C39.2713 33.8192 39.0618 33.3 38.6444 32.88C38.2269 32.46 37.7091 32.25 37.0909 32.25C36.4727 32.25 35.9549 32.46 35.5375 32.88C35.12 33.3 34.9105 33.8192 34.9091 34.4375C34.9076 35.0558 35.1171 35.5757 35.5375 35.9972C35.9578 36.4186 36.4756 36.6279 37.0909 36.625ZM34.9091 25.6875H44.1818L39.2727 19.125H34.9091V25.6875Z" fill="black"/>
</svg>

<svg width="48" height="48" fill="none" xmlns="http://www.w3.org/2000/svg"><path d="M10.91 41c-1.82 0-3.365-.638-4.637-1.914C5 37.81 4.363 36.26 4.363 34.438H0V10.375c0-1.203.428-2.233 1.283-3.089C2.138 6.43 3.165 6.001 4.363 6H34.91v8.75h6.546L48 23.5v10.938h-4.364c0 1.822-.636 3.372-1.909 4.648C40.455 40.362 38.91 41 37.091 41s-3.364-.638-4.636-1.914c-1.273-1.276-1.91-2.826-1.91-4.648h-13.09c0 1.822-.637 3.372-1.91 4.648C14.274 40.362 12.728 41 10.91 41zm0-4.375c.617 0 1.136-.21 1.555-.63.419-.42.627-.94.626-1.557-.002-.619-.211-1.138-.628-1.558-.418-.42-.936-.63-1.554-.63s-1.136.21-1.553.63c-.418.42-.627.94-.629 1.557-.001.619.208 1.139.629 1.56.42.422.938.63 1.553.628zm26.18 0c.62 0 1.138-.21 1.556-.63.42-.42.628-.94.627-1.557-.002-.619-.211-1.138-.629-1.558-.417-.42-.935-.63-1.553-.63-.618 0-1.136.21-1.553.63-.418.42-.627.94-.629 1.557-.001.619.208 1.139.629 1.56.42.422.938.63 1.553.628zm-2.18-10.938h9.272l-4.91-6.562H34.91v6.563z" fill="#000"/></svg>
